!!!!SEGMENT: erk103.krn
!!!OTL@@DE: Hans und Liesel
!!!COM: Woyna, Franz von
!!!ODT: ~1845
!!!OMD: Andante
!!!ONB: Dichter unbekannt
!!!OCL: Erk, Ludwig
!!!GCO: Deutscher Liederschatz, Band 1
**kern	**kern	**dynam	**kern	**dynam
*staff3	*staff2	*staff2/3	*staff1	*
*Ipiano	*Ipiano	*	*Ivox	*
*>[A,B,B]	*>[A,B,B]	*>[A,B,B]	*>[A,B,B]	*>[A,B,B]
*>norep[A,B]	*>norep[A,B]	*>norep[A,B]	*>norep[A,B]	*>norep[A,B]
*>A	*>A	*>A	*>A	*>A
*clefF4	*clefG2	*	*clefG2	*
*k[b-e-a-d-]	*k[b-e-a-d-]	*	*k[b-e-a-d-]	*
*A-:	*A-:	*	*A-:	*
*M3/4	*M3/4	*	*M3/4	*
*MM84	*MM84	*	*MM84	*
4r	8.a-L	mf	4r	.
.	16a-Jk	.	.	.
=1	=1	=1	=1	=1
4CC	4a-	.	2.r	.
4C 4En 4B-	4g	.	.	.
4C 4E 4B-	4cc	.	.	.
=2	=2	=2	=2	=2
4DD-	2f	.	2.r	.
4D- 4F 4A-	.	.	.	.
!	!LO:TUP:a	!	!	!
4BB- 4F 4G	(12ffL	.	.	.
.	12dd-	.	.	.
.	12b-J)	.	.	.
=3	=3	=3	=3	=3
4C	4..a-	.	2.r	.
4F 4A-	.	.	.	.
.	16cc	.	.	.
4C 4En 4B-	(8.gL	.	.	.
.	16ccJk)	.	.	.
=4	=4	=4	=4	=4
4F 4A-	2f	.	4r	.
4FF	.	.	4r	.
=!|:	=!|:	=!|:	=!|:	=!|:
*>B	*>B	*>B	*>B	*>B
4r	4r	.	8.a-	.
.	.	.	16a-	.
=5	=5	=5	=5	=5
2.CC 2.C	4r	.	4a-	.
.	4B- 4c 4en	.	4g	.
.	4B- 4c 4e	.	4cc	.
=6	=6	=6	=6	=6
2.FFF 2.FF	4r	.	2f	.
.	4A- 4c 4f	.	.	.
.	4A- 4c 4f	.	8cc	<
.	.	.	8cc	[[
!!LO:LB:g=original
=7	=7	=7	=7	=7
2.GGG 2.GG	4r	.	4cc	>
.	4B- 4c 4e	.	4e	]
.	4B- 4c 4e	.	8cc	<
.	.	.	8cc	[
=	=	=	=	=
2.AAA- 2.AA-	4r	.	4cc	>
.	4A- 4c 4f	.	4f	]
.	4A- 4c 4f	.	8cc	.
.	.	.	8cc	.
=8	=8	=8	=8	=8
2.BBB- 2.BB-	4r	.	4dd-	.
.	4G 4d- 4f	.	4b-	.
.	4G 4d- 4f	.	4g	.
=9	=9	=9	=9	=9
2.CC 2.C	4r	.	4f	.
.	4A- 4c 4f	.	4a-	.
.	4A- 4c 4f	.	8f	.
.	.	.	8f	.
=10	=10	=10	=10	=10
2.CC 2.C	4r	.	4en	.
.	4B- 4c 4en	.	4.cc	.
.	4B- 4c 4e	.	.	.
.	.	.	8e	.
!!LO:LB:g=original
=11	=11	=11	=11	=11
2FF 2F	4r	.	2f	.
.	4A- 4c 4f	.	.	.
4r	4r	.	8f	.
.	.	.	8f-	.
=12	=12	=12	=12	=12
(4GG	8r	p	4e-	.
.	8B- 8d- 8e-	.	.	.
4E-	8r	.	4b-	.
.	8B- 8d- 8e-	.	.	.
4GG)	8r	.	8e-	.
.	8B- 8d- 8e-	.	8e-	.
=13	=13	=13	=13	=13
(4AA-	8r	.	4e-	.
.	8A- 8c 8e-	.	.	.
4E-	8r	.	4ee-	.
.	8A- 8c 8e-	.	.	.
4AA-)	8r	.	8e-	.
.	8A- 8c 8e-	.	8f	.
=14	=14	=14	=14	=14
(4GG	8r	.	4e-	.
.	8B- 8d- 8e-	.	.	.
4E-	8r	.	4b-	.
.	8B- 8d- 8e-	.	.	.
4GG)	8r	.	8e-	.
.	8B- 8d- 8e-	.	8f	.
=15	=15	=15	=15	=15
(4AA-	8r	.	4e-	.
.	8A- 8c 8e-	.	.	.
4E-	8r	.	4ee-	.
.	8A- 8c 8e-	.	.	.
!	!LO:TX:c:i:t=poco	!	!	!
4AA-)	8r	.	8cc	.
.	8A- 8c 8e-	.	8cc	.
!!LO:LB:g=original
=16	=16	=16	=16	=16
!	!LO:TX:c:i:t=string.:vg=2	!	!LO:TX:a:i:t=string.	!
8A-	8r	.	4cc	.
8r	8c 8a- 8cc	.	.	.
8G	8r	.	4cc	.
8r	8c 8a- 8cc	.	.	.
!	!LO:TX:c:i:t=e	!	!LO:TX:a:i:t=e	!
8G-	8r	.	4cc	.
8r	8c 8a- 8cc	.	.	.
=17	=17	=17	=17	=17
!	!LO:TX:c:i:t=cresc.	!	!LO:TX:a:i:t=cresc.	!
8F	8r	.	4cc	.
8r	8c 8a- 8cc	.	.	.
8F-	8r	.	4cc	.
8r	8c 8a- 8cc	.	.	.
8E-	8r	.	4cc	.
8r	8c 8a- 8cc	.	.	.
=18	=18	=18	=18	=18
!	!LO:TX:c:i:t=a tempo	!	!LO:TX:a:i:t=a tempo	!
4EE-	4r	.	4.ee-	.
4r	4d- 4e- 4g	.	.	.
.	.	.	8dd-	.
4E-	4d- 4e- 4g	.	8e-	.
.	.	.	8b-	.
=19	=19	=19	=19	=19
4AA-	4r	.	2cc	.
4r	4c 4e- 4a-	.	.	.
!	!LO:TX:c:i:t=poco	!	!LO:TX:a:i:t=poco	!
4A-	4c 4e- 4a-	.	8cc	.
.	.	.	8cc	.
=20	=20	=20	=20	=20
!	!LO:TX:c:i:t=string.	!	!LO:TX:a:i:t=string.	!
8AA- 8A-	8r	.	4cc	.
8r	8c 8a- 8cc	.	.	.
!	!LO:TX:c:i:t=e	!	!LO:TX:a:i:t=e	!
8GG\ 8G\	8r	.	4cc	.
8r	8c 8a- 8cc	.	.	.
!	!LO:TX:c:i:t=cresc.	!	!LO:TX:a:i:t=cresc.	!
8GG-\ 8G-\	8r	.	4cc	.
8r	8c 8a- 8cc	.	.	.
!!LO:LB:g=original
=21	=21	=21	=21	=21
8GG- 8G-	8r	.	4cc	.
8r	8c 8a- 8cc	.	.	.
8FF 8F	8r	.	4cc	.
8r	8c 8a- 8cc	.	.	.
8FF- 8F-	8r	.	4cc	.
8r	8c 8a- 8cc	.	.	.
=22	=22	=22	=22	=22
4EE- 4E-	4c 4e- 4a- 4cc	.	8ee-	.
.	.	.	8een	.
2EE-;< 2E-;<	2d-; 2e-; 2g;	.	4.ff;	.
.	.	.	8g	.
=23	=23	=23	=23	=23
4AA-	4c 4e- 4a-	.	4a-	.
4A-	4r	.	4r	.
4r	(8.e-L	.	4r	.
.	16fJk)	.	.	.
=24	=24	=24	=24	=24
(8EE-L	(4e-	.	2.r	.
8E-	.	.	.	.
8G 8d-	4b-/)	.	.	.
8E-	.	.	.	.
8G 8d-	(8.e-L	.	.	.
8E-J)	.	.	.	.
.	16fJk)	.	.	.
=25	=25	=25	=25	=25
8AA-L	(4e-	<	2.r	.
8E-	.	.	.	.
8A- 8c	4ee-)	.	.	.
8E-	.	.	.	.
(8A- 8c	(8.ee-L	[	.	.
8E-J)	.	.	.	.
.	16eenJk	.	.	.
=26	=26	=26	=26	=26
(8EE-L	8.ggL	>	2.r	.
8E-	.	.	.	.
.	16ffk	.	.	.
8G 8d-	8.ee-X	.	.	.
8E-	.	.	.	.
.	16dd-Jk	]	.	.
8B- 8d-	8.fL	.	.	.
8E-J)	.	.	.	.
.	16gJk	.	.	.
=27	=27	=27	=27	=27
4A- 4c	4a-)	.	4r	.
4AA-	4r	.	4r	.
==:|!	==:|!	==:|!	==:|!	==:|!
*-	*-	*-	*-	*-
!!!system-decoration: s1{(s2,s3)}
!!!RDF**kern: > = above
!!!RDF**kern: < = below
!!!ENC: Craig Stuart Sapp
!!!END: 2004/06/03/
!!!EED: Craig Stuart Sapp
!!!EEV: 2025/07/21
!!!EFL: 103/651
